public/knife-fork.svg

<svg xmlns="http://www.w3.org/2000/svg" viewBox="0 0 512 512" style="height: 512px; width: 512px;"><path d="M0 0h512v512H0z" fill="#000" fill-opacity="1"></path><g class="" transform="translate(0,0)" style=""><path d="M39.906 27.188c-9.118 13.907-11.366 30.99-7.843 50.718 4.2 23.526 16.91 50.038 35.28 75 36.742 49.925 96.05 93.082 148.813 99.625l3.688.47 2.375 2.844L416.374 490.22c19.352 4.624 31.847 1.745 38.344-4.69 6.547-6.484 9.566-19.005 4.717-38.874L39.908 27.187zM414.97 29.5L306.47 138c-12 11.998-12.104 25.2-5.908 39.625l2.563 5.97-4.688 4.5L262 222.844l29.594 29.593 34.594-36.532 4.5-4.75 5.968 2.594c15.165 6.535 29.546 6.267 40.688-4.875l108.5-108.5L471.75 86.28l-70.563 70.532L388 143.595l70.53-70.53L443.5 58.03l-70.53 70.532-13.22-13.218 70.53-70.53-15.31-15.314zM210.936 271.563L25.53 448.469c-4.575 18.95-1.644 30.787 4.532 36.905 6.178 6.118 18.128 8.927 36.844 4.406l173.22-182.967-29.19-35.25z" fill="#fff" fill-opacity="1"></path></g></svg>

<?xml version="1.0" encoding="UTF-8" standalone="no"?>
<!DOCTYPE svg PUBLIC "-//W3C//DTD SVG 1.1//EN" "http://www.w3.org/Graphics/SVG/1.1/DTD/svg11.dtd">
<svg width="100%" height="100%" viewBox="0 0 512 512" version="1.1" xmlns="http://www.w3.org/2000/svg" xmlns:xlink="http://www.w3.org/1999/xlink" xml:space="preserve" xmlns:serif="http://www.serif.com/" style="fill-rule:evenodd;clip-rule:evenodd;stroke-linejoin:round;stroke-miterlimit:2;">
    <g>
        <path d="M39.906,27.188C30.788,41.095 28.54,58.178 32.063,77.906C36.263,101.432 48.973,127.944 67.343,152.906C104.085,202.831 163.393,245.988 216.156,252.531L219.844,253.001L222.219,255.845L416.374,490.22C435.726,494.844 448.221,491.965 454.718,485.53C461.265,479.046 464.284,466.525 459.435,446.656L39.908,27.187L39.906,27.188ZM414.97,29.5L306.47,138C294.47,149.998 294.366,163.2 300.562,177.625L303.125,183.595L298.437,188.095L262,222.844L291.594,252.437L326.188,215.905L330.688,211.155L336.656,213.749C351.821,220.284 366.202,220.016 377.344,208.874L485.844,100.374L471.75,86.28L401.187,156.812L388,143.595L458.53,73.065L443.5,58.03L372.97,128.562L359.75,115.344L430.28,44.814L414.97,29.5ZM210.936,271.563L25.53,448.469C20.955,467.419 23.886,479.256 30.062,485.374C36.24,491.492 48.19,494.301 66.906,489.78L240.126,306.813L210.936,271.563Z" style="fill:white;fill-rule:nonzero;"/>
    </g>
</svg>
